dist/svg/static/user-whole-body-large.svg

<svg xmlns="http://www.w3.org/2000/svg" width="48" height="48" viewBox="0 0 48 48"><g fill="none" stroke="currentColor"><path d="M23.5 44.5V31m-4-12v8.669l1 16.831h6l1-16.998V19"/><path d="M19.5 27.5h-3V14.387a1.988 1.988 0 0 1 2.016-1.938h10.009a1.952 1.952 0 0 1 1.975 1.938V27.5h-3"/><rect x="20.5" y="3.5" width="6" height="6" rx="2" ry="2"/></g></svg>

<?xml version="1.0" encoding="UTF-8" standalone="no"?>
<svg width="48px" height="48px" viewBox="0 0 48 48" version="1.1" xmlns="http://www.w3.org/2000/svg" xmlns:xlink="http://www.w3.org/1999/xlink">
    <!-- Generator: sketchtool 46.2 (44496) - http://www.bohemiancoding.com/sketch -->
    <title>user-whole-body-large</title>
    <desc>Created with sketchtool.</desc>
    <defs></defs>
    <g id="icons-published" stroke="none" stroke-width="1" fill="none" fill-rule="evenodd">
        <g id="briefing" transform="translate(-3456.000000, -2202.000000)"></g>
        <g id="user-whole-body-large" stroke="#000000">
            <path d="M23.5,44.5 L23.5,31 M19.5,19 L19.5,27.7 L20.5,44.5 L26.5,44.5 L27.5,27.5 L27.5,19" id="Shape"></path>
            <path d="M19.5,27.5 L16.5,27.5 L16.5,14.4 C16.5,13.3 17.4,12.4 18.5,12.5 L28.5,12.5 C29.6,12.5 30.5,13.4 30.5,14.4 C30.5,14.4 30.5,14.4 30.5,14.4 L30.5,27.5 L27.5,27.5" id="Shape"></path>
            <path d="M22.5,3.5 L24.5,3.5 C25.6,3.5 26.5,4.4 26.5,5.5 L26.5,7.5 C26.5,8.6 25.6,9.5 24.5,9.5 L22.5,9.5 C21.4,9.5 20.5,8.6 20.5,7.5 L20.5,5.5 C20.5,4.4 21.4,3.5 22.5,3.5 Z" id="Shape"></path>
        </g>
    </g>
</svg>
